X: 1
T: Pearlin' Jean
C: Muriel Johnstone
R: jig
B: The Whiteaddr Collection, 1993
D: Dancing Fingers Vol.III
N:
N: Muriel Johnstone and Bill Zobel   Tel. 0890 818884
N: Scotscores, Muse Cottage, Allanton, Duns, Beerwiskshire, TD11 3JZ, Scotland
Z: 1997 by John Chambers <jc:trillian.mit.edu>
M: 6/8
L: 1/8
K: Am
f \
| "Am"e>AA "Dm"dcB | "Am"cAA A2d | e>AA "D7"dcA | "G"BGG GBd \
| "Am"e>AA "Dm"dcA | "G"BGB "C"cde | "Dm"d>cA "G"GAB | "Am"cA A2 :|
|: e \
| "Am"a>ge "Dm"fed | "Am"eAA A2a- |  a>ge "D7"d2c | "G"BGG G2e \
| "Am"a>ge "Dm"fed | "E7"B>cd "Am"ede | "Dm"d>cA "G"GAB | "Am"cA A2 :|
